storage/app/icons/phosphoricons/bold/mailbox-bold.svg

<svg xmlns="http://www.w3.org/2000/svg" fill="currentColor" viewBox="0 0 256 256"><path d="M100 148a12 12 0 0 1-12 12H64a12 12 0 0 1 0-24h24a12 12 0 0 1 12 12m144-32v60a20 20 0 0 1-20 20h-84v28a12 12 0 0 1-24 0v-28H32a20 20 0 0 1-20-20v-60a64.07 64.07 0 0 1 64-64h80V24a12 12 0 0 1 12-12h32a12 12 0 0 1 0 24h-20v16a64.07 64.07 0 0 1 64 64m-128 56v-56a40 40 0 0 0-80 0v56Zm104-56a40 40 0 0 0-40-40v68a12 12 0 0 1-24 0V76h-30.07A63.7 63.7 0 0 1 140 116v56h80Z"/></svg>

<svg xmlns="http://www.w3.org/2000/svg" viewBox="0 0 256 256" fill="currentColor"><path d="M100,148a12,12,0,0,1-12,12H64a12,12,0,0,1,0-24H88A12,12,0,0,1,100,148Zm144-32v60a20,20,0,0,1-20,20H140v28a12,12,0,0,1-24,0V196H32a20,20,0,0,1-20-20V116A64.07,64.07,0,0,1,76,52h80V24a12,12,0,0,1,12-12h32a12,12,0,0,1,0,24H180V52A64.07,64.07,0,0,1,244,116ZM116,172V116a40,40,0,0,0-80,0v56Zm104-56a40,40,0,0,0-40-40v68a12,12,0,0,1-24,0V76H125.93A63.7,63.7,0,0,1,140,116v56h80Z"/></svg>
